icons/theatre-chairs.svg

<?xml version="1.0" encoding="UTF-8"?><svg id="uuid-1d1c7264-5854-41ff-972b-d27ec23c9b65" xmlns="http://www.w3.org/2000/svg" viewBox="0 0 50 50"><path d="M32.58,17.28c0,.25,.2,.45,.45,.45h7.52c.25,0,.45-.2,.45-.45v-1.93h-8.41v1.93Z" fill="none"/><path d="M8.94,17.28c0,.25,.2,.45,.45,.45h7.52c.25,0,.45-.2,.45-.45v-1.93H8.94v1.93Z" fill="none"/><path d="M49.11,23.17v-.34c-.07-1.43-.94-2.5-2.04-2.5-.4,0-.76,.14-1.07,.39l-.02-3.23v-.03c-.3-4.8-4.29-8.56-9.07-8.56s-8.77,3.76-9.08,8.59l-.02,3.44c-.35-.37-.8-.6-1.29-.6-.62,0-1.17,.35-1.54,.91-.37-.56-.92-.91-1.54-.91-.4,0-.76,.14-1.07,.39l-.02-3.23v-.03c-.3-4.8-4.29-8.56-9.07-8.56s-8.77,3.76-9.08,8.59l-.02,3.44c-.35-.37-.8-.6-1.29-.6-1.1,0-1.98,1.08-2.04,2.5v.34h0v5.9c0,.28,.22,.5,.5,.5,.06,0,.11-.01,.16-.03v1.17c0,.83,.67,1.5,1.5,1.5H7.24l-.03,5.13h-2.79c-.28,0-.5,.22-.5,.5v2.76c0,.28,.22,.5,.5,.5H22.11c.28,0,.5-.22,.5-.5v-2.76c0-.28-.22-.5-.5-.5h-2.79l-.03-5.13h4.24c.83,0,1.5-.67,1.5-1.5v-1.15s.07,0,.1-.02v1.17c0,.83,.67,1.5,1.5,1.5h4.24l-.03,5.13h-2.79c-.28,0-.5,.22-.5,.5v2.76c0,.28,.22,.5,.5,.5h17.69c.28,0,.5-.22,.5-.5v-2.76c0-.28-.22-.5-.5-.5h-2.79l-.03-5.13h4.24c.83,0,1.5-.67,1.5-1.5v-1.15c.25-.03,.44-.23,.44-.49v-5.9h0Zm-25.68-1.85c.49,0,.93,.59,1.03,1.35h-2.05c.1-.76,.53-1.35,1.03-1.35Zm-18.24-3.8c.27-4.28,3.82-7.63,8.08-7.63s7.8,3.34,8.07,7.61l.04,8.2H5.14l.04-8.19Zm-2.31,3.8c.5,0,.94,.6,1.03,1.35H1.85c.1-.76,.53-1.35,1.03-1.35Zm-1.04,6.12v-3.77h2.32v2.08c-1.03,.16-1.88,.8-2.32,1.69Zm19.77,10.9v1.76H4.92v-1.76H21.61Zm-13.4-1l.03-5.13h10.05l.03,5.13H8.21Zm15.82-6.63c0,.28-.22,.5-.5,.5H3c-.28,0-.5-.22-.5-.5v-.7H24.03v.7Zm0-1.7H2.5v-.18c0-1.17,.95-2.12,2.12-2.12H21.91c1.17,0,2.12,.95,2.12,2.12v.18Zm.44-1.96c-.48-.69-1.23-1.16-2.09-1.29v-2.08h2.09v3.38Zm22.59-5.73c.49,0,.93,.59,1.03,1.35h-2.05c.1-.76,.53-1.35,1.03-1.35Zm-18.24-3.8c.27-4.28,3.82-7.63,8.08-7.63s7.8,3.34,8.07,7.61l.04,8.2H28.78l.04-8.19Zm-2.31,3.8c.5,0,.94,.6,1.03,1.35h-2.05c.1-.76,.53-1.35,1.03-1.35Zm-1.04,6.12v-3.77h2.32v2.08c-1.03,.16-1.88,.8-2.32,1.69Zm19.77,10.9v1.76H28.56v-1.76h16.69Zm-13.4-1l.03-5.13h10.05l.03,5.13h-10.1Zm15.82-6.63c0,.28-.22,.5-.5,.5H26.63c-.28,0-.5-.22-.5-.5v-.7h21.54v.7Zm0-1.7H26.13v-.18c0-1.17,.95-2.12,2.12-2.12h17.3c1.17,0,2.12,.95,2.12,2.12v.18Zm.44-1.96c-.48-.69-1.23-1.16-2.09-1.29v-2.08h2.09v3.38Z"/><path d="M17.86,14.34H8.44c-.28,0-.5,.22-.5,.5v2.43c0,.8,.65,1.45,1.45,1.45h7.52c.8,0,1.45-.65,1.45-1.45v-2.43c0-.28-.22-.5-.5-.5Zm-.5,2.93c0,.25-.2,.45-.45,.45h-7.52c-.25,0-.45-.2-.45-.45v-1.93h8.41v1.93Z"/><path d="M41.5,14.34h-9.41c-.28,0-.5,.22-.5,.5v2.43c0,.8,.65,1.45,1.45,1.45h7.52c.8,0,1.45-.65,1.45-1.45v-2.43c0-.28-.22-.5-.5-.5Zm-.5,2.93c0,.25-.2,.45-.45,.45h-7.52c-.25,0-.45-.2-.45-.45v-1.93h8.41v1.93Z"/></svg>

<svg id="af3ee885-cd47-4b4b-84fe-26b71d1301e1" data-name="ICONS" xmlns="http://www.w3.org/2000/svg" viewBox="0 0 50 50"><path d="M32.58,17.28a.45.45,0,0,0,.45.44h7.52a.45.45,0,0,0,.45-.44V15.34H32.58Z" fill="none"/><path d="M8.94,17.28a.45.45,0,0,0,.45.44h7.52a.45.45,0,0,0,.45-.44V15.34H8.94Z" fill="none"/><path d="M49.11,23.17v-.34a2.35,2.35,0,0,0-2-2.5,1.75,1.75,0,0,0-1.07.38V17.46a9.09,9.09,0,0,0-18.15,0v3.43a1.79,1.79,0,0,0-1.3-.59,1.86,1.86,0,0,0-1.54.91,1.86,1.86,0,0,0-1.54-.91,1.68,1.68,0,0,0-1.07.39l0-3.23v0a9.09,9.09,0,0,0-18.15,0l0,3.43a1.77,1.77,0,0,0-1.29-.59,2.35,2.35,0,0,0-2,2.5v.34h0v5.9a.5.5,0,0,0,.5.5.51.51,0,0,0,.17,0v1.17A1.5,1.5,0,0,0,3,32.21H7.24l0,5.13H4.42a.5.5,0,0,0-.5.5V40.6a.5.5,0,0,0,.5.5H22.11a.5.5,0,0,0,.5-.5V37.84a.51.51,0,0,0-.5-.5h-2.8l0-5.13h4.24a1.5,1.5,0,0,0,1.5-1.5V29.56l.1,0v1.17a1.5,1.5,0,0,0,1.5,1.5h4.24l0,5.13H28.06a.5.5,0,0,0-.5.5V40.6a.5.5,0,0,0,.5.5H45.74a.5.5,0,0,0,.5-.5V37.84a.5.5,0,0,0-.5-.5H43l0-5.13h4.24a1.5,1.5,0,0,0,1.5-1.5V29.56a.5.5,0,0,0,.44-.49v-5.9ZM23.43,21.33c.49,0,.93.59,1,1.34H22.4C22.5,21.92,22.93,21.33,23.43,21.33ZM5.19,17.52a8.09,8.09,0,0,1,16.15,0l0,8.2H5.14ZM2.88,21.33c.49,0,.93.59,1,1.34h-2C2,21.92,2.38,21.33,2.88,21.33Zm-1,6.12V23.67H4.15v2.09A3.12,3.12,0,0,0,1.83,27.45ZM21.61,38.34V40.1H4.92V38.34H21.61Zm-13.4-1,0-5.13h10l0,5.13ZM24,30.71a.5.5,0,0,1-.5.5H3a.5.5,0,0,1-.5-.5V30H24ZM24,29H2.5v-.18a2.11,2.11,0,0,1,2.11-2.12h17.3A2.12,2.12,0,0,1,24,28.83Zm.44-2a3.14,3.14,0,0,0-2.09-1.29V23.67h2.1Zm22.59-5.72c.5,0,.93.59,1,1.34H46C46.13,21.92,46.57,21.33,47.06,21.33ZM28.82,17.52a8.09,8.09,0,0,1,16.16,0l0,8.2H28.78Zm-2.31,3.81c.5,0,.94.59,1,1.34H25.49C25.58,21.92,26,21.33,26.51,21.33Zm-1,6.12V23.67h2.32v2.09A3.08,3.08,0,0,0,25.47,27.45ZM45.24,38.34V40.1H28.56V38.34H45.24Zm-13.39-1,0-5.13H41.93l0,5.13Zm15.82-6.63a.5.5,0,0,1-.5.5H26.63a.5.5,0,0,1-.5-.5V30H47.67Zm0-1.7H26.13v-.18a2.12,2.12,0,0,1,2.12-2.12h17.3a2.12,2.12,0,0,1,2.12,2.12Zm.44-2A3.14,3.14,0,0,0,46,25.76V23.67h2.1Z"/><path d="M17.86,14.34H8.44a.51.51,0,0,0-.5.5v2.44a1.44,1.44,0,0,0,1.45,1.44h7.52a1.44,1.44,0,0,0,1.45-1.44V14.84A.51.51,0,0,0,17.86,14.34Zm-.5,2.94a.45.45,0,0,1-.45.44H9.39a.45.45,0,0,1-.45-.44V15.34h8.42Z"/><path d="M41.5,14.34H32.08a.51.51,0,0,0-.5.5v2.44A1.44,1.44,0,0,0,33,18.72h7.52A1.44,1.44,0,0,0,42,17.28V14.84A.51.51,0,0,0,41.5,14.34ZM41,17.28a.45.45,0,0,1-.45.44H33a.45.45,0,0,1-.45-.44V15.34H41Z"/></svg>
